X: 1935
T: Tom Walsh's Set Tune
B: australian traditional tunes wiki
M:4/4
L:1/8
R: Set Tune
Q: 1/4=100
K:D
V:1 
F>G|:"D"AG BA Ad f>g|"Bm"fe de "EM"E2ed|1"A7"dc cBA2BA|"D"F2F2F2F>G:|2"A7"dc cB Ag fe|"D"d6zB||
"D"d3Bd3B|"A7"c2B2 "Bm"F4|"D"A2Bcd2e2|"Bm"f2gf "A7"e4|"D"d2d2df ed|"A7"e2e2e2F>G|
"D"AG BA A>d f>g|"Bm"fe d>e "Em"E2ed|"A7"dc cB Ag fe|"D"dA FAD2z2||
% abcbook-tune_id 6342d5bed380fd27a873714d


% abcbook-boost 0
% abcbook-tablature 
% abcbook-transpose 
% abcbook-lastupdated 1665324488854
% abcbook-soundfonts 
% abcbook-repeats 1
% NFF Book 2006

